X:1
T:The Vicar of Bray
M:4/4
L:1/8
K:C
 z4 z2 G2| cB/2-A/2G-A FG EE/2-F/2| GC FE D2 CG| cB/2-A/2 GA FG EE/2-F/2|\
 GC FE D2 CG| cA BG cB/2-A/2 BG| cB/2-c/2 dcB-A GG| cB/2-A/2 GA FG E3/2 F/2|\
 GC FE D2 CG| cA BG cA BG| cB/2-c/2 dc A2 GG| cB/2-A/2 GA FG E3/2 F/2|\
 G C/2C/2 F/2F/2 E D4| C6 z2|
